X: 1
T: Reel Bijoux
O: Qu\'ebec
R: reel
Z: 2012 John Chambers <jc:trillian.mit.edu>
S: session taped by Paul Milde
M: 2/4
L: 1/16
K: D
ag |\
"D"fafd Adcd | "Em"B"#"def g2gf |\
"A7"egec Acec | "D"defg "A7"a2ag ||\
"D"fafd Adcd |
"Em"B"#"def g2gf |\
"A7"egec Acec | "A7"dfec "D"d2 :|\
|: {B}AF |\
"D"D2FA dAFA | "G"BABc "D"dBAF |
"D"D2FA dAFD | "A7"E2A,E CEA,E ||\
"D"D2FA dAFA | "G"BABc defg |\
"D"a3f "G"gfed | "A7"cABc "D"d2 :|
